public/assets/linkedin.svg

<svg width="100" height="100" viewBox="0 0 100 100" fill="none" xmlns="http://www.w3.org/2000/svg">
<path d="M50 0C22.39 0 0 22.39 0 50C0 77.61 22.39 100 50 100C77.61 100 100 77.61 100 50C100 22.39 77.61 0 50 0ZM35.4706 75.5859H23.2933V38.9503H35.4706V75.5859ZM29.3823 33.9478H29.303C25.2167 33.9478 22.5739 31.1348 22.5739 27.6192C22.5739 24.0242 25.2975 21.2891 29.4632 21.2891C33.6288 21.2891 36.1923 24.0242 36.2717 27.6192C36.2717 31.1348 33.6288 33.9478 29.3823 33.9478ZM79.3793 75.5859H67.2035V55.9868C67.2035 51.0612 65.4404 47.702 61.0344 47.702C57.6706 47.702 55.6671 49.968 54.7867 52.1553C54.4647 52.9381 54.3861 54.0321 54.3861 55.127V75.5859H42.2096C42.2096 75.5859 42.3691 42.3874 42.2096 38.9503H54.3861V44.1376C56.0043 41.6412 58.8997 38.0905 65.3603 38.0905C73.3719 38.0905 79.3793 43.3266 79.3793 54.5792V75.5859Z" fill="#F7D59C"/>
</svg>

<svg width="100" height="100" fill="none" xmlns="http://www.w3.org/2000/svg"><path d="M50 0C22.39 0 0 22.39 0 50s22.39 50 50 50 50-22.39 50-50S77.61 0 50 0ZM35.47 75.586H23.294V38.95h12.178v36.636Zm-6.088-41.638h-.079c-4.086 0-6.73-2.813-6.73-6.329 0-3.595 2.724-6.33 6.89-6.33 4.166 0 6.73 2.735 6.809 6.33 0 3.516-2.643 6.329-6.89 6.329ZM79.38 75.586H67.204v-19.6c0-4.925-1.764-8.284-6.17-8.284-3.363 0-5.367 2.266-6.247 4.453-.322.783-.4 1.877-.4 2.972v20.459H42.21s.16-33.199 0-36.636h12.176v5.188C56.004 41.64 58.9 38.09 65.36 38.09c8.012 0 14.02 5.236 14.02 16.488v21.007Z" fill="#F7D59C"/></svg>
